X:16
T:Henning Troen (pols)
R:Rorospols
Z:2002 Brian Wilson <baab@comcast.net>
Z:e. Sven Nyhus Grimen
M:3/4
L:1/8
K:D
||: "D"d2 "A"(cA) Ac | "A"e2 "D"(ed) d>f | "D"a2 (a^g) a>a | "E"(b/a/^g) "A"a2 f>f
|   "D"d3/2(d/2 "A"cA) Ac | "A"e2 "D"(ed) d>f | "D"a2 (a^g) a>a | "E"(b<^g) "A"a3 f :|
|: "D"(a>b) (ag) (g/f/)a | "G"(a>f) (ge) e>g |
|  "D"(g>e) (fd) d>e | "A"d3/2(d/2 cA) B>B | "E"(c/B/c) "A"A3 (f
|  "D"a>b) (ag) (g/f/)a | "G"(a>f) (ge) e>g |
|  "D"(g>e) (fd) d>e | "A"d2 (cA) B>d | "A"(c/B/c) "D"d4 :|
